src/assets/selectIcons/zaino.svg

<svg xmlns="http://www.w3.org/2000/svg" viewBox="0 0 512 512"><path d="M0 0h512v512H0z"/><path fill="#fff" d="M186.438 20.56l-13.184 26.365c6.8-.26 13.626-.488 20.47-.686l3.84-7.68h116.874l3.77 7.54c6.838.187 13.658.408 20.456.66l-13.102-26.2H186.437zm69.56 42.742c-45.757.056-91.452 1.566-135.38 4.363-3.24 50.58-8.4 100.987-.786 145.824 89.297 12.395 180.102 12.985 272.764-.054 7.055-30.988 5.117-84.68-1.04-145.89-43.974-2.893-89.73-4.3-135.558-4.244zm153.783 5.54c6.42 64.12 9.113 119.825-1.135 155.22l-1.61 5.56-5.726.842c-98.8 14.528-195.613 13.81-290.605.002l-6.285-.914-1.246-6.23c-9.89-49.49-4.085-102.785-.664-154.42-4.89.354-9.765.72-14.602 1.107-8.596 58.568-9.39 116.957-.05 175.292 110.24 12.088 222.275 12.205 336.203-.01 8.502-57.83 8.29-116.25-.017-175.313-4.725-.4-9.485-.776-14.262-1.14zM255.966 92.3c32.526-.025 65.067 2.746 97.574 8.39l7.46 1.295v7.572c0 15.554 1.683 35.105-12.69 50.25-9.912 10.444-25.655 17.337-51.31 20.585v18.164h-82v-18.452c-23.992-3.37-39.352-10.175-49.363-20.185C150.807 145.093 151 125.56 151 109.56v-7.594l7.484-1.278c32.444-5.54 64.955-8.362 97.48-8.386zm.012 17.994c-28.96.022-57.913 2.444-86.858 6.996.265 12.28 1.635 22.296 9.243 29.904 5.914 5.914 16.952 11.416 36.637 14.582v-29.22h82v29.51c21.367-3.115 32.66-8.755 38.254-14.65 7.033-7.41 7.696-17.502 7.73-30.124-29-4.63-58.006-7.02-87.007-6.998zM233 150.56v30h46v-30h-46zm209.674 92.42c-.503 3.625-1.042 7.25-1.61 10.87.214 2.352.42 4.706.63 7.06L471 290.213v-22.24l-28.326-24.995zm-373.485.12L41 267.973v22.24l29.318-29.318c.205-2.327.406-4.655.616-6.982-.618-3.605-1.202-7.21-1.745-10.813zm354.634 20.397c-10.29 1.09-20.564 2.076-30.824 2.967v74.095h16v66h-16v80.615c10.318-.633 20.63-1.313 30.928-2.082 9.445-74.01 6.478-147.698-.104-221.596zm-335.576.03C81.725 338.09 78.58 412.1 88.06 485.1c10.324.79 20.638 1.504 30.94 2.145V406.56h-16v-66h16v-74.024c-10.266-.902-20.517-1.903-30.752-3.01zm286.752 4.4c-10.014.76-20.014 1.424-30 1.992v70.64h30v-72.632zm-238 .085v72.547h30v-70.55c-10.015-.568-20.014-1.237-30-1.997zm190 2.825c-47.65 2.173-94.984 2.19-142 .078v19.314c23.95-5.165 47.8-7.652 71.516-7.59 23.638.06 47.145 2.654 70.484 7.626v-19.43zM68.05 288.62L41 315.67v56.89h23.06c.376-27.987 1.88-55.975 3.99-83.94zm375.948.047c2.12 27.872 3.61 55.83 3.957 83.892H471v-56.89l-27.002-27.003zm-187.52 11.95c-23.68-.063-47.487 2.577-71.478 8.052v31.89h16v18.443c17.033 5.346 31.73 8.493 46 9.426v-2.87h18v2.868c14.27-.932 28.967-4.08 46-9.425V340.56h16v-31.866c-23.42-5.267-46.907-8.016-70.523-8.078zM121 358.558v30h22v-23h18v23h22v-30h-62zm208 0v30h22v-23h18v23h22v-30h-62zM201 377.8v28.76h-16v15.857c48.528 10.865 95.713 10.664 142 .045V406.56h-16V377.8c-16.332 4.747-31.283 7.52-46 8.326v11.433h-18v-11.434c-14.717-.806-29.668-3.58-46-8.326zM41 390.56v14h23.14c-.09-4.667-.143-9.334-.163-14H41zm407.012 0c-.027 4.663-.083 9.33-.18 14H471v-14h-22.988zM137 406.56v19.798c6.137 7.214 11.222 9.77 14.934 9.844 3.734.075 8.697-2.122 15.066-9.79V406.56h-6v7h-18v-7h-6zm208 0v19.798c6.137 7.214 11.222 9.77 14.934 9.844 3.734.075 8.697-2.122 15.066-9.79V406.56h-6v7h-18v-7h-6zm-304 16v35.154c5.596 5.51 8.677 8.25 11.846 9.306 2.454.818 7.713 1.15 15.045 1.317-1.544-15.25-2.586-30.51-3.204-45.778H41zm406.27 0c-.628 15.224-1.674 30.483-3.21 45.78 7.358-.168 12.635-.5 15.094-1.32 3.17-1.056 6.25-3.795 11.846-9.306V422.56h-23.73zM185 440.842v49.498c47.55 1.51 94.877 1.446 142-.074V440.9c-46.316 10.03-93.74 10.185-142-.057zm-48 9.123v38.318c10.01.54 20.01 1.008 30 1.408v-39.678c-4.86 2.786-10.01 4.293-15.43 4.184-5.192-.104-10.036-1.624-14.57-4.232zm208 0v39.654c10.01-.403 20.01-.878 30-1.412v-38.194c-4.86 2.786-10.01 4.293-15.43 4.184-5.192-.104-10.036-1.624-14.57-4.232z"/></svg>

<?xml version="1.0" encoding="UTF-8" standalone="no"?>
<!DOCTYPE svg PUBLIC "-//W3C//DTD SVG 1.1//EN" "http://www.w3.org/Graphics/SVG/1.1/DTD/svg11.dtd">
<svg width="100%" height="100%" viewBox="0 0 512 512" version="1.1" xmlns="http://www.w3.org/2000/svg" xmlns:xlink="http://www.w3.org/1999/xlink" xml:space="preserve" xmlns:serif="http://www.serif.com/" style="fill-rule:evenodd;clip-rule:evenodd;stroke-linejoin:round;stroke-miterlimit:2;">
    <rect x="0" y="0" width="512" height="512" style="fill-rule:nonzero;"/>
    <path d="M186.438,20.56L173.254,46.925C180.054,46.665 186.88,46.437 193.724,46.239L197.564,38.559L314.438,38.559L318.208,46.099C325.046,46.286 331.866,46.507 338.664,46.759L325.562,20.559L186.437,20.559L186.438,20.56ZM255.998,63.302C210.241,63.358 164.546,64.868 120.618,67.665C117.378,118.245 112.218,168.652 119.832,213.489C209.129,225.884 299.934,226.474 392.596,213.435C399.651,182.447 397.713,128.755 391.556,67.545C347.582,64.652 301.826,63.245 255.998,63.301L255.998,63.302ZM409.781,68.842C416.201,132.962 418.894,188.667 408.646,224.062L407.036,229.622L401.31,230.464C302.51,244.992 205.697,244.274 110.705,230.466L104.42,229.552L103.174,223.322C93.284,173.832 99.089,120.537 102.51,68.902C97.62,69.256 92.745,69.622 87.908,70.009C79.312,128.577 78.518,186.966 87.858,245.301C198.098,257.389 310.133,257.506 424.061,245.291C432.563,187.461 432.351,129.041 424.044,69.978C419.319,69.578 414.559,69.202 409.782,68.838L409.781,68.842ZM255.966,92.3C288.492,92.275 321.033,95.046 353.54,100.69L361,101.985L361,109.557C361,125.111 362.683,144.662 348.31,159.807C338.398,170.251 322.655,177.144 297,180.392L297,198.556L215,198.556L215,180.104C191.008,176.734 175.648,169.929 165.637,159.919C150.807,145.093 151,125.56 151,109.56L151,101.966L158.484,100.688C190.928,95.148 223.439,92.326 255.964,92.302L255.966,92.3ZM255.978,110.294C227.018,110.316 198.065,112.738 169.12,117.29C169.385,129.57 170.755,139.586 178.363,147.194C184.277,153.108 195.315,158.61 215,161.776L215,132.556L297,132.556L297,162.066C318.367,158.951 329.66,153.311 335.254,147.416C342.287,140.006 342.95,129.914 342.984,117.292C313.984,112.662 284.978,110.272 255.977,110.294L255.978,110.294ZM233,150.56L233,180.56L279,180.56L279,150.56L233,150.56ZM442.674,242.98C442.171,246.605 441.632,250.23 441.064,253.85C441.278,256.202 441.484,258.556 441.694,260.91L471,290.213L471,267.973L442.674,242.978L442.674,242.98ZM69.189,243.1L41,267.973L41,290.213L70.318,260.895C70.523,258.568 70.724,256.24 70.934,253.913C70.316,250.308 69.732,246.703 69.189,243.1ZM423.823,263.497C413.533,264.587 403.259,265.573 392.999,266.464L392.999,340.559L408.999,340.559L408.999,406.559L392.999,406.559L392.999,487.174C403.317,486.541 413.629,485.861 423.927,485.092C433.372,411.082 430.405,337.394 423.823,263.496L423.823,263.497ZM88.247,263.527C81.725,338.09 78.58,412.1 88.06,485.1C98.384,485.89 108.698,486.604 119,487.245L119,406.56L103,406.56L103,340.56L119,340.56L119,266.536C108.734,265.634 98.483,264.633 88.248,263.526L88.247,263.527ZM374.999,267.927C364.985,268.687 354.985,269.351 344.999,269.919L344.999,340.559L374.999,340.559L374.999,267.927ZM136.999,268.012L136.999,340.559L166.999,340.559L166.999,270.009C156.984,269.441 146.985,268.772 136.999,268.012ZM326.999,270.837C279.349,273.01 232.015,273.027 184.999,270.915L184.999,290.229C208.949,285.064 232.799,282.577 256.515,282.639C280.153,282.699 303.66,285.293 326.999,290.265L326.999,270.835L326.999,270.837ZM68.05,288.62L41,315.67L41,372.56L64.06,372.56C64.436,344.573 65.94,316.585 68.05,288.62ZM443.998,288.667C446.118,316.539 447.608,344.497 447.955,372.559L471,372.559L471,315.669L443.998,288.666L443.998,288.667ZM256.478,300.617C232.798,300.554 208.991,303.194 185,308.669L185,340.559L201,340.559L201,359.002C218.033,364.348 232.73,367.495 247,368.428L247,365.558L265,365.558L265,368.426C279.27,367.494 293.967,364.346 311,359.001L311,340.56L327,340.56L327,308.694C303.58,303.427 280.093,300.678 256.477,300.616L256.478,300.617ZM121,358.558L121,388.558L143,388.558L143,365.558L161,365.558L161,388.558L183,388.558L183,358.558L121,358.558ZM329,358.558L329,388.558L351,388.558L351,365.558L369,365.558L369,388.558L391,388.558L391,358.558L329,358.558ZM201,377.799L201,406.56L185,406.56L185,422.417C233.528,433.282 280.713,433.081 327,422.462L327,406.56L311,406.56L311,377.8C294.668,382.547 279.717,385.32 265,386.126L265,397.559L247,397.559L247,386.125C232.283,385.319 217.332,382.545 201,377.799ZM41,390.56L41,404.56L64.14,404.56C64.05,399.893 63.997,395.226 63.977,390.56L41,390.56ZM448.012,390.56C447.985,395.223 447.929,399.89 447.832,404.56L471,404.56L471,390.56L448.012,390.56ZM137,406.56L137,426.358C143.137,433.572 148.222,436.128 151.934,436.202C155.668,436.277 160.631,434.08 167,426.412L167,406.56L161,406.56L161,413.56L143,413.56L143,406.56L137,406.56ZM345,406.56L345,426.358C351.137,433.572 356.222,436.128 359.934,436.202C363.668,436.277 368.631,434.08 375,426.412L375,406.56L369,406.56L369,413.56L351,413.56L351,406.56L345,406.56ZM41,422.559L41,457.714C46.596,463.224 49.677,465.964 52.846,467.02C55.3,467.838 60.559,468.17 67.891,468.337C66.347,453.087 65.305,437.827 64.687,422.559L41,422.559ZM447.27,422.56C446.642,437.784 445.596,453.043 444.06,468.34C451.418,468.172 456.695,467.84 459.154,467.02C462.324,465.964 465.404,463.225 471,457.714L471,422.56L447.27,422.56ZM185,440.842L185,490.34C232.55,491.85 279.877,491.786 327,490.266L327,440.9C280.684,450.93 233.26,451.085 185,440.843L185,440.842ZM137,449.965L137,488.283C147.01,488.823 157.01,489.291 167,489.691L167,450.013C162.14,452.799 156.99,454.306 151.57,454.197C146.378,454.093 141.534,452.573 137,449.965ZM345,449.965L345,489.619C355.01,489.216 365.01,488.741 375,488.207L375,450.013C370.14,452.799 364.99,454.306 359.57,454.197C354.378,454.093 349.534,452.573 345,449.965Z" style="fill:rgb(190,167,100);fill-rule:nonzero;"/>
</svg>
